static/img/icon_web.svg

<svg width="24" height="24" viewBox="0 0 24 24" fill="none" xmlns="http://www.w3.org/2000/svg">
<path d="M4.5 17.25V6.75C4.5 5.92157 5.17157 5.25 6 5.25H18C18.8284 5.25 19.5 5.92157 19.5 6.75V17.25C19.5 18.0784 18.8284 18.75 18 18.75H6C5.17157 18.75 4.5 18.0784 4.5 17.25Z" stroke="#111827" stroke-width="1.125"/>
<path d="M4.5 8.25H19.5" stroke="#111827" stroke-width="1.125" stroke-linecap="round" stroke-linejoin="round"/>
<path d="M6.75 6.75736L6.7575 6.74902" stroke="#111827" stroke-width="1.125" stroke-linecap="round" stroke-linejoin="round"/>
<path d="M9 6.75736L9.0075 6.74902" stroke="#111827" stroke-width="1.125" stroke-linecap="round" stroke-linejoin="round"/>
<path d="M11.25 6.75736L11.2575 6.74902" stroke="#111827" stroke-width="1.125" stroke-linecap="round" stroke-linejoin="round"/>
</svg>

<svg width="24" height="24" fill="none" xmlns="http://www.w3.org/2000/svg"><path d="M4.5 17.25V6.75A1.5 1.5 0 0 1 6 5.25h12a1.5 1.5 0 0 1 1.5 1.5v10.5a1.5 1.5 0 0 1-1.5 1.5H6a1.5 1.5 0 0 1-1.5-1.5Z" stroke="#111827" stroke-width="1.125"/><path d="M4.5 8.25h15M6.75 6.757l.008-.008M9 6.757l.008-.008M11.25 6.757l.008-.008" stroke="#111827" stroke-width="1.125" stroke-linecap="round" stroke-linejoin="round"/></svg>
